svgs/sharp-solid/print.svg

<svg xmlns="http://www.w3.org/2000/svg" viewBox="0 0 512 512"><!--! Font Awesome Pro 6.4.2 by @fontawesome - https://fontawesome.com License - https://fontawesome.com/license (Commercial License) Copyright 2023 Fonticons, Inc. --><path d="M96 0H368h13.3l9.4 9.4 48 48 9.4 9.4V80v80H384V93.3L354.7 64H128v96H64V32 0H96zM64 384H0V192H512V384H448v96 32H416 96 64V480 384zm64 0v64H384V384 352H128v16 16zM408 248v48h48V248H408z"/></svg>

<svg xmlns="http://www.w3.org/2000/svg" viewBox="0 0 512 512"><!--! Font Awesome Pro 6.6.0 by @fontawesome - https://fontawesome.com License - https://fontawesome.com/license (Commercial License) Copyright 2024 Fonticons, Inc. --><path d="M96 0L368 0l13.3 0 9.4 9.4 48 48 9.4 9.4L448 80l0 80-64 0 0-66.7L354.7 64 128 64l0 96-64 0L64 32 64 0 96 0zM64 384L0 384 0 192l512 0 0 192-64 0 0 96 0 32-32 0L96 512l-32 0 0-32 0-96zm64 0l0 64 256 0 0-64 0-32-256 0 0 16 0 16zM408 248l0 48 48 0 0-48-48 0z"/></svg>
